X:265
T:The road to the glen
R:Reel
C:Ed Reavy
S:ricker~3.abc
Z:Transcription:Henrik Norbeck?, chords:Mike Long
M:C|
L:1/8
K:C
DE|:\
"Dm"FdcB ADFD|"G"G2dG BGdG|"F"F2cF Acde|"F"fedc "G"ABcA|\
"Dm"~d3e f2ag|
"F"fedc "G"AFDE|[1 "Dm"FEFG AGFG|"F"Ad"G"dc "Dm"d2DE:|[2 "Dm"FEFG A2DE|"F"FD"G"EC "Dm"D2de|]
"Dm"f2ag fedf|"C"ec~c2 Gceg|"Dm"f2ag fede|"C"fdec "Dm"Adde|\
"Dm"f2fg gffe|
"F"fedc "G"AFDE|"Dm"FEFG AGFG|"C"Addc "Dm"d2de||\
"Dm"f2ag fedf|"C"ec~c2 Gceg|
"Dm"f2ag fede|"F"fdec "G"Addc|\
"Dm"d2~d2 Adfd|"C"gc~c2 acgc|"Dm"agfe dcAG|"F"FD"G"EC "Dm"D2|]
